X:1
T:Title
%%score { ( 1 4 ) | ( 2 3 ) }
L:1/8
Q:1/4=112
M:3/2
K:Bb
V:1 treble nm="Grand Piano"
V:4 treble 
V:2 bass 
V:3 bass 
V:1
 [DF]6 [C=E]2 [DF]2 [DGB]2 | [C^FA]8 z4 | [B,G]6 [B,GB]2 [B,FA]2 [B,EG]2 | [DF]8 z4 | %4
w: D.~O.~Teasley * * *||||
 [DF]6 [C=E]2 [DF]2 [DB]2 | [FA]2 [EG]2 [DF]4 D4 | E4 G4 z4 | [DF]6 [C=E]2 [DF]2 [DGB]2 | %8
w: ||||
 [C^FA]8 z4 | [B,G]6 [B,FB]2 [EA]2 [DB]2 | c8 z4 | [DF]6 [C=E]2 [DF]2 [DB]2 | %12
w: ||||
 [FA]2 G2 z2 B,2 [F,F]2- [F,EF]2 | [B,DF]8 z4 |] %14
w: ||
V:2
 [B,,B,]6 [B,,B,]2 [B,,B,]2 G,,2 | D,8 z4 | E,6 E,2 E,2 E,2 | [B,,B,]8 z4 | %4
 [B,,B,]6 [B,,B,]2 [B,,B,]2 [B,,F,]2 | [B,,F,]2 [B,,B,]2 [B,,B,]4 [B,,_A,B,]4 | E,4- [E,B,E]4 z4 | %7
 [B,,B,]6 [B,,B,]2 [B,,B,]2 B,,2 | D,8 z4 | E,6 D,2 [C,F,]2 [B,,B,]2 | [F,,F,]8 z4 | %11
 [B,,B,]6 [B,,B,]2 [B,,B,]2 [B,,B,]2 | [E,B,]2 [E,B,E]2 E,2- [E,G,]2 z2 C2 | B,,8 z4 |] %14
V:3
 x12 | x12 | x12 | x12 | x12 | x12 | [G,B,]4 z4 z4 | x12 | x12 | x12 | x12 | x12 | %12
 z4 .[F,A,]4 F,,4 | x12 |] %14
V:4
 x12 | x12 | x12 | x12 | x12 | x12 | x12 | x12 | x12 | x12 | F4 E4 z4 | x12 | z4 F4 .[A,C]4 | %13
 x12 |] %14

